X:58
T:Miss McLeod's
M:4/4
L:1/8
R:reel
K:G
|: G2BG DGBG | B2BA BcBA | G2BG DGBG | A2AG AcBA |
G2BG DGBG | B2BA B2d2 | efed Bdef | gedB AcBA :|
|: G2gf edeg | B2BA BcBA | G2gf edeg | a2ab agef |
g2gf edeg | B2BA B2d2 | efed Bdef | gedB AcBA :|
